icons/raphael.svg

<!--
  - The MIT License (MIT)
  -
  - Copyright (c) 2015-2024 Elior "Mallowigi" Boukhobza
  -
  - Permission is hereby granted, free of charge, to any person obtaining a copy
  - of this software and associated documentation files (the "Software"), to deal
  - in the Software without restriction, including without limitation the rights
  - to use, copy, modify, merge, publish, distribute, sublicense, and/or sell
  - copies of the Software, and to permit persons to whom the Software is
  - furnished to do so, subject to the following conditions:
  -
  - The above copyright notice and this permission notice shall be included in all
  - copies or substantial portions of the Software.
  -
  - THE SOFTWARE IS PROVIDED "AS IS", WITHOUT WARRANTY OF ANY KIND, EXPRESS OR
  - IMPLIED, INCLUDING BUT NOT LIMITED TO THE WARRANTIES OF MERCHANTABILITY,
  - FITNESS FOR A PARTICULAR PURPOSE AND NONINFRINGEMENT. IN NO EVENT SHALL THE
  - AUTHORS OR COPYRIGHT HOLDERS BE LIABLE FOR ANY CLAIM, DAMAGES OR OTHER
  - LIABILITY, WHETHER IN AN ACTION OF CONTRACT, TORT OR OTHERWISE, ARISING FROM,
  - OUT OF OR IN CONNECTION WITH THE SOFTWARE OR THE USE OR OTHER DEALINGS IN THE
  - SOFTWARE.
  -
  -->

<svg  version="1.1" xmlns="http://www.w3.org/2000/svg" x="0px" y="0px" viewBox="0 0 512 512" width="16px"
     height="16px">
  <path fill="#E57373" data-iconColor="Raphael"
        d="M335.707489,478.6474609l142.8680115-142.8680115c46.5708618-48.1907654,42.5001221-113.904892,0.0467529-159.3635559L335.6841125,33.5713005c-44.3351746-44.3998032-114.5892334-44.040638-159.2465668,0L33.5227547,176.4158936c-47.0153847,49.0411072-42.3169289,115.2240295-0.0000114,159.3635559l145.1376038,145.0205994C227.8482819,526.9153442,299.1789551,517.0991821,335.707489,478.6474609z M341.8377991,335.3816223c-49.9996033-12.9399109-104.5187378-55.7573242-129.437561-118.6042938c68.2992249,26.9834747,145.8407898-14.2832794,155.5730896-92.0242004l81.144165,81.1441498c13.4304199,13.4304352,20.8358765,31.2597046,20.8358765,50.2120361c0,14.0154114-4.0595703,27.3990479-11.5937195,38.8406677c-4.5158386,6.177063-9.3871155,11.7415161-14.2610474,16.3902893C417.3950806,336.6574402,380.1806335,345.3047485,341.8377991,335.3816223z M62.9808044,205.8973236l54.8916245-54.9150391c-19.8707962,66.8621826-23.6480255,138.9728546-10.0377197,200.1696014l-44.8539047-44.8305054C33.0952797,275.1546936,37.0324593,232.633194,62.9808044,205.8973236z M156.8300323,166.0388794c18.7690125,126.2312012,121.5398407,215.4996643,216.8289642,215.1326294c0.2106018,0,0.3977661-0.0233765,0.5849304-0.0233765l-68.0178833,68.0178833c-79.1068115,69.8175049-159.4771729-43.333313-163.9495544-151.6656494C139.3751526,254.2141418,144.5928955,209.0911255,156.8300323,166.0388794z M220.5559845,174.3451691c-47.1261902-27.1687775-47.1262054-95.4594955-0.0000153-122.628273s106.3537903,6.9765739,106.3537903,61.3141327S267.6821899,201.5139465,220.5559845,174.3451691z"/>
</svg>

<svg xmlns="http://www.w3.org/2000/svg" viewBox="0 0 512 512"><path fill="#e57373" d="M335.707 478.647 478.576 335.78c46.57-48.19 42.5-113.904.046-159.363L335.684 33.57c-44.335-44.4-114.59-44.04-159.246 0L33.523 176.416c-47.016 49.041-42.317 115.224 0 159.363L178.66 480.8c49.188 46.115 120.519 36.3 157.047-2.153m6.13-143.265c-49.999-12.94-104.518-55.758-129.437-118.605 68.3 26.984 145.841-14.283 155.573-92.024l81.144 81.144c13.43 13.43 20.836 31.26 20.836 50.212 0 14.016-4.06 27.4-11.593 38.841-4.516 6.177-9.387 11.741-14.261 16.39-26.704 25.317-63.918 33.965-102.261 24.042M62.982 205.897l54.891-54.915c-19.87 66.862-23.648 138.973-10.037 200.17l-44.854-44.83c-29.886-31.167-25.949-73.689 0-100.425m93.849-39.858c18.769 126.231 121.54 215.5 216.829 215.133.21 0 .398-.024.585-.024l-68.018 68.018C227.12 518.984 146.75 405.833 142.277 297.5c-2.9-43.286 2.317-88.409 14.554-131.461m63.726 8.306c-47.126-27.169-47.126-95.46 0-122.628S326.91 58.693 326.91 113.03s-59.228 88.483-106.354 61.314" data-iconColor="Raphael"/></svg>
